lib/assets/icons/svg/outlined-action-delete.svg

<svg viewBox="0 0 24 24" xmlns="http://www.w3.org/2000/svg">
  <path  d="M 11.415 17.61 L 11.415 10.51 C 11.434 10.367 11.509 10.237 11.623 10.149 C 11.958 9.89 12.448 10.09 12.505 10.51 L 12.505 17.63 C 12.489 17.911 12.245 18.123 11.965 18.1 C 11.685 18.097 11.45 17.888 11.415 17.61 Z M 18.765 7.4 L 18.765 7.84 C 18.771 8.543 18.208 9.119 17.505 9.13 L 17.035 17.93 C 16.947 19.085 15.993 19.983 14.835 20 L 9.165 20 C 8.031 19.986 7.086 19.127 6.965 18 L 6.505 9.2 C 5.803 9.149 5.254 8.574 5.235 7.87 L 5.235 7.47 C 5.235 6.734 5.829 6.135 6.565 6.13 L 8.565 6.13 L 8.565 5.33 C 8.57 4.594 9.169 4 9.905 4 L 14.105 4 C 14.837 4.005 15.43 4.598 15.435 5.33 L 15.435 6.07 L 17.435 6.07 C 18.15 6.114 18.721 6.685 18.765 7.4 Z M 7.505 9.13 L 7.965 17.87 C 8.016 18.499 8.534 18.987 9.165 19 L 14.835 19 C 15.457 18.965 15.963 18.488 16.035 17.87 L 16.505 9.13 Z M 9.565 6.13 L 14.435 6.13 L 14.435 5.3 C 14.43 5.125 14.28 4.989 14.105 5 L 9.865 5 C 9.692 5.011 9.559 5.157 9.565 5.33 Z M 17.765 7.36 C 17.754 7.189 17.606 7.059 17.435 7.07 L 6.535 7.07 C 6.36 7.075 6.224 7.225 6.235 7.4 L 6.235 7.8 C 6.235 8 6.365 8.2 6.565 8.13 L 17.435 8.13 C 17.565 8.13 17.765 8 17.765 7.87 Z M 9.615 17.59 L 9.385 10.49 C 9.406 10.211 9.645 9.998 9.925 10.01 C 10.315 10.01 10.545 10.23 10.545 10.51 L 10.785 17.6 C 10.779 17.736 10.722 17.864 10.625 17.96 C 10.516 18.052 10.378 18.101 10.235 18.1 C 9.936 18.093 9.679 17.883 9.615 17.59 Z M 13.395 17.96 C 13.295 17.867 13.237 17.737 13.235 17.6 L 13.435 10.49 C 13.456 10.212 13.697 10.003 13.975 10.02 C 14.118 10.019 14.256 10.068 14.365 10.16 C 14.461 10.252 14.518 10.377 14.525 10.51 L 14.295 17.6 C 14.227 17.889 13.972 18.094 13.675 18.1 C 13.515 18.1 13.365 18 13.395 17.96 Z"/>
</svg>

<svg xmlns="http://www.w3.org/2000/svg" viewBox="0 0 24 24"><path d="M11.415 17.61v-7.1a.55.55 0 0 1 1.09 0v7.12a.5.5 0 0 1-.54.47.56.56 0 0 1-.55-.49zm7.35-10.21v.44a1.28 1.28 0 0 1-1.26 1.29l-.47 8.8a2.24 2.24 0 0 1-2.2 2.07h-5.67a2.24 2.24 0 0 1-2.2-2l-.46-8.8a1.37 1.37 0 0 1-1.27-1.33v-.4a1.34 1.34 0 0 1 1.33-1.34h2v-.8A1.34 1.34 0 0 1 9.905 4h4.2a1.34 1.34 0 0 1 1.33 1.33v.74h2a1.42 1.42 0 0 1 1.33 1.33zM7.505 9.13l.46 8.74a1.229 1.229 0 0 0 1.2 1.13h5.67a1.28 1.28 0 0 0 1.2-1.13l.47-8.74zm2.06-3h4.87V5.3a.31.31 0 0 0-.33-.3h-4.24a.32.32 0 0 0-.3.33zm8.2 1.23a.31.31 0 0 0-.33-.29h-10.9a.31.31 0 0 0-.3.33v.4c0 .2.13.4.33.33h10.87c.13 0 .33-.13.33-.26zm-8.15 10.23l-.23-7.1a.52.52 0 0 1 .54-.48c.39 0 .62.22.62.5l.24 7.09a.54.54 0 0 1-.16.36.597.597 0 0 1-.39.14.65.65 0 0 1-.62-.51zm3.78.37a.502.502 0 0 1-.16-.36l.2-7.11a.51.51 0 0 1 .54-.47.597.597 0 0 1 .39.14.522.522 0 0 1 .16.35l-.23 7.09a.65.65 0 0 1-.62.5c-.16 0-.31-.1-.28-.14z"/></svg>
